X:64
T:Queen Of Paris. JBs.064
S:Jas.Blackshaw MS, 1837, N.Shropshire
A:North Shropshire
Z:T. Weatherall 2006
M:2/4
L:1/8
Q:1/4=100
R:Country Dance
K:C
â€œ*â€G|cccc|c>dec|dddd|d>efd|efga|gfed|c>ded|cBAG|!
cccc|c>dec|dddd|d>efd|efga|gfed|cccc|â€*â€c3:|!
|:â€*â€z|g2gg|g2(a/g/f/e/)|f2ff|f2(g/f/e/d/)|e2ee|eged|cded|cBAG|!
cccc|c>dec|dddd|d>efd|efga|gfed|cccc|â€*â€c3:|

